X:131
T:Recollection of that day, The
T:O Chiadainn an l\`o
R:Slow Air
S:Simon Fraser Collection
N:No.198
O:Scottish
M:3/4
L:1/8
Q:1/4=120
K:C
c e>g|a2 A2 c>d|e2 zc d>e|g2G2 A>c|[G2c2] zG c>d|
e2A2 G>E|[B,2D2] ze g>c|(A2G2) [B,3/2D3/2]C/|C3:|
|:C E>G|[C4 A2] G2 A>c|[G2c2] zd e>G|A2G2 A>c|[E2c2] zC E>G|
[C4A2] G2 A>c|[G2c2] zd e>g|a2 c2 d>c|c2 z:|

